Numix-GalliumOS/64/mimetypes/application-vector-template.svg

<svg xmlns="http://www.w3.org/2000/svg" xmlns:xlink="http://www.w3.org/1999/xlink" width="64px" height="64px" viewBox="0 0 64 64" version="1.1">
<g id="surface1">
<path style=" stroke:none;fill-rule:nonzero;fill:rgb(1.568627%,66.666667%,61.176471%);fill-opacity:1;" d="M 10.6875 0 C 9.3125 0 8 1.378906 8 2.8125 L 8 61.1875 C 8 62.539062 9.390625 64 10.6875 64 L 53.3125 64 C 54.609375 64 56 62.539062 56 61.1875 L 56 2.75 C 56 1.402344 54.597656 0 53.25 0 Z M 10.6875 0 "/>
<path style=" stroke:none;fill-rule:nonzero;fill:rgb(100%,100%,100%);fill-opacity:1;" d="M 40 20.773438 C 39.15625 20.773438 38.398438 21.347656 38 22 L 30 22 C 30 22 28.054688 21.851562 26.359375 22.667969 C 24.65625 23.488281 22.855469 25.363281 22.855469 28.488281 C 22.855469 31.617188 24.65625 33.492188 26.359375 34.3125 C 27.160156 34.699219 27.953125 34.863281 28.574219 34.964844 L 28.574219 35.449219 L 25.429688 38.480469 C 25.335938 38.453125 25.25 38.410156 25.144531 38.410156 C 24.507812 38.410156 24 38.902344 24 39.511719 C 24 40.125 24.507812 40.613281 25.144531 40.613281 C 25.773438 40.613281 26.28125 40.125 26.28125 39.511719 C 26.28125 39.410156 26.238281 39.332031 26.214844 39.238281 L 29.355469 36.207031 L 33.144531 36.207031 L 33.144531 35.101562 L 34.28125 35.101562 C 34.28125 35.101562 35.488281 35.128906 36.640625 35.6875 C 37.804688 36.25 38.855469 37.125 38.855469 39.511719 C 38.855469 41.898438 37.804688 42.777344 36.640625 43.335938 C 35.488281 43.894531 34 44 34 44 L 26 44 C 25.605469 43.347656 24.84375 42.820312 24 42.820312 C 22.734375 42.820312 21.710938 43.808594 21.710938 45.023438 C 21.710938 46.238281 22.734375 47.226562 24 47.226562 C 24.84375 47.226562 25.605469 46.65625 26 46 L 34 46 C 34 46 35.945312 46.152344 37.640625 45.332031 C 39.347656 44.515625 41.144531 42.636719 41.144531 39.511719 C 41.144531 36.386719 39.347656 34.507812 37.640625 33.691406 C 35.945312 32.871094 34.28125 32.898438 34.28125 32.898438 L 33.144531 32.898438 L 33.144531 32.554688 L 36.289062 29.523438 C 36.382812 29.546875 36.46875 29.59375 36.574219 29.59375 C 37.203125 29.59375 37.71875 29.101562 37.71875 28.488281 C 37.71875 27.878906 37.203125 27.386719 36.574219 27.386719 C 35.945312 27.386719 35.429688 27.878906 35.429688 28.488281 C 35.429688 28.59375 35.472656 28.671875 35.503906 28.765625 L 32.355469 31.796875 L 28.574219 31.796875 L 28.574219 32.726562 C 28.195312 32.640625 27.78125 32.519531 27.359375 32.3125 C 26.195312 31.753906 25.144531 30.875 25.144531 28.488281 C 25.144531 26.105469 26.195312 25.226562 27.359375 24.667969 C 28.511719 24.105469 30 24 30 24 L 38 24 C 38.398438 24.65625 39.15625 25.183594 40 25.183594 C 41.265625 25.183594 42.292969 24.191406 42.292969 22.976562 C 42.292969 21.765625 41.265625 20.773438 40 20.773438 Z M 40 20.773438 "/>
</g>
</svg>

<svg xmlns="http://www.w3.org/2000/svg" viewBox="0 0 64 64">
 <g>
  <path d="m 10.688 0 c -1.375 0 -2.688 1.379 -2.688 2.813 l 0 58.38 c 0 1.352 1.391 2.813 2.688 2.813 l 42.625 0 c 1.297 0 2.688 -1.461 2.688 -2.813 l 0 -58.44 c 0 -1.348 -1.402 -2.75 -2.75 -2.75 m -42.563 0" style="fill:#03aa9c;fill-opacity:1;stroke:none;fill-rule:nonzero"/>
  <path d="m 40 20.773 c -0.844 0 -1.602 0.574 -2 1.227 l -8 0 c 0 0 -1.945 -0.148 -3.641 0.668 c -1.703 0.82 -3.504 2.695 -3.504 5.82 c 0 3.129 1.801 5 3.504 5.824 c 0.801 0.387 1.594 0.551 2.215 0.652 l 0 0.484 l -3.145 3.03 c -0.094 -0.027 -0.18 -0.07 -0.285 -0.07 c -0.637 0 -1.145 0.492 -1.145 1.102 c 0 0.613 0.508 1.102 1.145 1.102 c 0.629 0 1.137 -0.488 1.137 -1.102 c 0 -0.102 -0.043 -0.18 -0.066 -0.273 l 3.141 -3.03 l 3.789 0 l 0 -1.105 l 1.137 0 c 0 0 1.207 0.027 2.359 0.586 c 1.164 0.563 2.215 1.438 2.215 3.824 c 0 2.387 -1.051 3.266 -2.215 3.824 c -1.152 0.559 -2.641 0.664 -2.641 0.664 l -8 0 c -0.395 -0.652 -1.156 -1.18 -2 -1.18 c -1.266 0 -2.289 0.988 -2.289 2.203 c 0 1.215 1.023 2.203 2.289 2.203 c 0.844 0 1.605 -0.57 2 -1.227 l 8 0 c 0 0 1.945 0.152 3.641 -0.668 c 1.707 -0.816 3.504 -2.695 3.504 -5.82 c 0 -3.125 -1.797 -5 -3.504 -5.82 c -1.695 -0.82 -3.359 -0.793 -3.359 -0.793 l -1.137 0 l 0 -0.344 l 3.145 -3.03 c 0.094 0.023 0.18 0.07 0.285 0.07 c 0.629 0 1.145 -0.492 1.145 -1.105 c 0 -0.609 -0.516 -1.102 -1.145 -1.102 c -0.629 0 -1.145 0.492 -1.145 1.102 c 0 0.105 0.043 0.184 0.074 0.277 l -3.148 3.03 l -3.781 0 l 0 0.93 c -0.379 -0.086 -0.793 -0.207 -1.215 -0.414 c -1.164 -0.559 -2.215 -1.438 -2.215 -3.824 c 0 -2.383 1.051 -3.262 2.215 -3.82 c 1.152 -0.563 2.641 -0.668 2.641 -0.668 l 8 0 c 0.398 0.656 1.156 1.184 2 1.184 c 1.266 0 2.293 -0.992 2.293 -2.207 c 0 -1.211 -1.027 -2.203 -2.293 -2.203 m 0 0" style="fill:#fff;fill-opacity:1;stroke:none;fill-rule:nonzero"/>
 </g>
</svg>
